X: 022235
T: Bev & the Reaper
C: B.Black 4/07
M: C|
L: 1/8
Q: 340
R: hornpipe 
K: D
(3ABc | "D"dfed "A"cedc | "G"BGBd "A7"cAGE | "D"DEFA "G"BGFG| "D"AdAF "A"E2 Bc |
"D"dfed "A"cedc | "G"BGBd "A7"cAGE | "D"DFAF "G"GBAG | "D"FD "A"EC "D"D2 :|
DE | "Bm"Fdcd "A"EcBc | "G"DBGB "A"CEAG | "D"FDFA "Em7"Bdeg | "D"fagf "A7"e2 AG |
"Bm"Fdcd "G"Gdcd | "D"Adcd "G"Bdgb | "D"afdc "Em"Begd | "A"cdec "D"d2 :|
